X:1
T:Title
T:L'encouragement Variation 3 Guitarre 2 
T:Composer
C:Composer
%%score ( 1 2 3 )
L:1/8
Q:1/4=40
M:2/4
K:E
V:1 treble nm="Piano" snm="Pno."
V:2 treble 
V:3 treble 
V:1
 z | [GB] z [Ac][Ac] | [GB] z z B | d[Be] cc | B[E^A] [DB] z | [GB] z [Ac][Ac] | [GB] z z [GB] | %7
 z4 | z B2 (3(g/a/)^a/ | (3(b/g/)e/(3e/e/e/ (3e/a/c'/(3(e'/c'/)a/ | %10
 (3(b/g/)e/(3e/e/e/ (3e/g/b/(3b/b/b/ | (3(a/b/)a/(3(g/a/)g/ (3(f/g/)f/(3(e/f/)e/ | %12
 (3(d/f/)e/(3(c/e/)d/ B(3(g/a/)^a/ | (3(b/g/)e/(3e/e/e/ (3e/a/c'/(3(e'/c'/)a/ | %14
 (3(b/g/)e/(3e/e/e/ (3e/g/b/(3(b/g/)e/ | (3d/f/b/(3f/d/B/ (3^A/c/f/(3e/c/f/ | %16
 (3B/d/f/(3b/d/f/ B z | [FAd]2 z f | e z z B | z G Be | B,[Ge] [Fd] z | z [GB] [B=d] z | %22
 z [Ac] z [Acf] | z [GBe] z [Af] | z [Ge] z f/>g/ | (3(a/g/)f/(3(f/e/)d/ (3(d/c/)B/(3(^A/B/)=A/ | %26
 (3G/B,/E/(3G/E/G/ (3B/G/B/(3e/B/e/ | (3g/e/g/(3b/g/b/ (3(e'/b/)g/(3b/g/e/ | %28
 (3B/e/g/(3b/g/e/ fg/>a/ | (3(b/g/)e/(3e/e/e/ (3e/e'/e'/(3e'/e'/e'/ | %30
 (3(e'/d'/)c'/(3c'/c'/c'/ (3(c'/b/)a/(3a/a/a/ | (3(g/a/)^a/(3(b/g/)e/ (3(=a/f/)d/(3(B/f/)d/ | %32
 (3(e/B/)g/(3e/B/G/ E z || [Ge]4 | (3A/c/e/(3a/e/a/ c' z | [Ge]4 | (3c'/a/e/(3e/a/c'/ e' z | %37
 (3(e'/d'/)c'/(3c'/c'/c'/ (3(c'/b/)^a/(3a/a/a/ | (3b/f/f/(3f/f/f/ (3f/g/^a/(3b/c'/d'/ | %39
 (3(e'/d'/)c'/(3c'/c'/c'/ (3(c'/b/)^a/(3a/a/a/ | b z z f | =gd ee | [Fd]2 z f/>f/ | =gd ee | %44
 [Fd](3B/c/d/ e2 | [Fd](3B/c/d/ e2 | [Fd](3B/c/d/ e2 | [Fd][=Ge] [Fd][Ge] | [Fd] z =d2 | c2 =c2 | %50
 B2 [^EB]2 | [F^A]2 [D=A]2 | [GB]2 [E=G]2 | FA Ge | [Fd] z [A-e]2 | [Ad] z [A-e]2 | [Ad] z z2 | %57
 z2 z || z | z [GB] [Ac][Ac] | [GB]2 z2 | BB cc | B^A B z | z [GB] [Ac][Ac] | [GB]2 z B- | BB FE | %66
 z ^A B z | B,[DB] [E^A][F=A] | B,[EG] B[EG] | B,[EG] [GB]e | B,e d z | z [B=d] [Ac][G^B] | %72
 [Ac] !fermata!z A,[Acf] | B,[GB] B,[AB] | z z B2 |] %75
V:2
 x | E, z z E | E, x x G | FE A^A | BF, B, x | E, x z E | E, x x E | F z F, z | B,D B, z | x4 | %10
 x4 | x4 | x4 | x4 | x4 | x4 | x4 | B,2 x D | E x x G | z E2 E | B,2 B, x | E,3 G, | A,2 A,2 | %23
 B,2 B,2 | E,2 E, z | x4 | x4 | x4 | x4 | x4 | x4 | x4 | x4 || E,4 | x4 | E,4 | x4 | x4 | x4 | x4 | %40
 z z z D | E[FA] =G[^A,G] | B,2 z [DB] | E[FA] =G[^A,G] | B, z z [^A,=G] | B, z z [^A,=G] | %46
 B, z z [^A,=G] | B,B, B,B, | B,B, B,2 | B,B, B,2 | B,B, B,2 | B,B, B,2 | B,B, B,2 | B,2 B,2 | %54
 B, z =C2 | B, z =C2 | B, z z2 | x3 || x | E,4 | E,E x2 | DD A^A | B[F,E] [B,D] x | E,4 | E,E z E | %65
 DG FF, | [B,E]2 [B,D] x | B,3 z | B,3 z | B,3 z | B,3 x | E,4 | A, x A,2 | B,2 B,2 | %74
 E,2 [DA][EG] |] %75
V:3
 x | x4 | x4 | x4 | x4 | x4 | x4 | x4 | x4 | x4 | x4 | x4 | x4 | x4 | x4 | x4 | x4 | x4 | x4 | x4 | %20
 x4 | x4 | x4 | x4 | x4 | x4 | x4 | x4 | x4 | x4 | x4 | x4 | x4 || z E EE | x4 | z E EE | x4 | x4 | %38
 x4 | x4 | x4 | x4 | x4 | x4 | x4 | x4 | x4 | x4 | x4 | x4 | x4 | x4 | x4 | x4 | x4 | x4 | x4 | %57
 x3 || x | x4 | x4 | x4 | x4 | x4 | x4 | x4 | x4 | x4 | x4 | x4 | x4 | x4 | x4 | x4 | x4 |] %75

